Numix/64/mimetypes/image-x-kodak-kdc.svg

<?xml version="1.0" encoding="UTF-8" standalone="no"?>
<svg
   xmlns:dc="http://purl.org/dc/elements/1.1/"
   xmlns:cc="http://creativecommons.org/ns#"
   xmlns:rdf="http://www.w3.org/1999/02/22-rdf-syntax-ns#"
   xmlns:svg="http://www.w3.org/2000/svg"
   xmlns="http://www.w3.org/2000/svg"
   xmlns:sodipodi="http://sodipodi.sourceforge.net/DTD/sodipodi-0.dtd"
   xmlns:inkscape="http://www.inkscape.org/namespaces/inkscape"
   width="64px"
   height="64px"
   viewBox="0 0 64 64"
   version="1.1"
   id="svg2"
   inkscape:version="0.91 r13725"
   sodipodi:docname="image-x-kodak-kdc.svg">
  <metadata
     id="metadata17">
    <rdf:RDF>
      <cc:Work
         rdf:about="">
        <dc:format>image/svg+xml</dc:format>
        <dc:type
           rdf:resource="http://purl.org/dc/dcmitype/StillImage" />
        <dc:title />
      </cc:Work>
    </rdf:RDF>
  </metadata>
  <defs
     id="defs15">
    <clipPath
       id="clipPath-258929573">
      <g
         transform="translate(0,-1004.3622)"
         id="g17">
        <path
           inkscape:connector-curvature="0"
           d="m -24,13 c 0,1.105 -0.672,2 -1.5,2 -0.828,0 -1.5,-0.895 -1.5,-2 0,-1.105 0.672,-2 1.5,-2 0.828,0 1.5,0.895 1.5,2 z"
           transform="matrix(15.333333,0,0,11.5,414.99999,878.8622)"
           style="fill:#1890d0"
           id="path19" />
      </g>
    </clipPath>
    <clipPath
       id="clipPath-258929573-9">
      <g
         transform="translate(0,-1004.3622)"
         id="g17-4">
        <path
           inkscape:connector-curvature="0"
           d="m -24,13 c 0,1.105 -0.672,2 -1.5,2 -0.828,0 -1.5,-0.895 -1.5,-2 0,-1.105 0.672,-2 1.5,-2 0.828,0 1.5,0.895 1.5,2 z"
           transform="matrix(15.333333,0,0,11.5,414.99999,878.8622)"
           style="fill:#1890d0"
           id="path19-4" />
      </g>
    </clipPath>
  </defs>
  <sodipodi:namedview
     pagecolor="#ffffff"
     bordercolor="#666666"
     borderopacity="1"
     objecttolerance="10"
     gridtolerance="10"
     guidetolerance="10"
     inkscape:pageopacity="0"
     inkscape:pageshadow="2"
     inkscape:window-width="1920"
     inkscape:window-height="1013"
     id="namedview13"
     showgrid="true"
     inkscape:zoom="32"
     inkscape:cx="27.279597"
     inkscape:cy="28.957072"
     inkscape:window-x="0"
     inkscape:window-y="27"
     inkscape:window-maximized="1"
     inkscape:current-layer="svg2">
    <inkscape:grid
       type="xygrid"
       id="grid4244" />
  </sodipodi:namedview>
  <path
     inkscape:connector-curvature="0"
     id="path5"
     d="M 10.671875,0 C 9.296875,0 8,1.355469 8,2.789062 L 8,61.210938 C 8,62.566406 9.375,64 10.671875,64 l 42.65625,0 C 54.625,64 56,62.566406 56,61.210938 L 56,18 38,0 Z m 0,0"
     style="fill:#35a14c;fill-opacity:1;fill-rule:nonzero;stroke:none" />
  <path
     inkscape:connector-curvature="0"
     id="path7"
     d="m 42,18 14,14 0,-14 z m 0,0"
     style="fill:#000000;fill-opacity:0.19607801;fill-rule:nonzero;stroke:none" />
  <path
     inkscape:connector-curvature="0"
     id="path9"
     d="M 38,0 55.984375,18 40.757812,18 C 39.410156,18 38,16.574219 38,15.226562 Z m 0,0"
     style="fill:#ffffff;fill-opacity:0.39215698;fill-rule:nonzero;stroke:none" />
  <path
     inkscape:connector-curvature="0"
     id="path13"
     d="M 8,48 8,61.33594 C 8,62.63281 9.375,64 10.664062,64 l 42.671876,0 C 54.625,64 56,62.63281 56,61.33594 L 56,48 Z m 0,0"
     style="fill:#000000;fill-opacity:0.19607801;fill-rule:nonzero;stroke:none" />
  <g
     id="g4246">
    <path
       d="m 23.495495,62 q -0.198198,-0.62197 -0.576576,-1.332794 -0.36036,-0.728595 -0.810812,-1.403877 -0.450449,-0.693053 -0.954954,-1.279483 -0.486486,-0.6042 -0.936937,-1.012924 L 20.216216,62 18,62 l 0,-11 2.216216,0 0,4.567044 q 0.396396,-0.497576 0.828829,-1.101777 0.432433,-0.6042 0.81081,-1.2084 0.396397,-0.604201 0.720722,-1.190631 Q 22.900901,51.479807 23.117117,51 l 2.504506,0 q -0.252253,0.479807 -0.612613,1.101777 -0.342344,0.604201 -0.792793,1.279483 -0.450452,0.657513 -0.972974,1.350566 -0.504504,0.693053 -1.063064,1.332795 0.55856,0.533118 1.135137,1.226171 0.576577,0.693054 1.08108,1.492731 0.522523,0.781906 0.936938,1.617123 Q 25.747748,61.218094 26,62 l -2.504505,0 z"
       style="font-style:normal;font-variant:normal;font-weight:bold;font-stretch:normal;font-size:medium;line-height:125%;font-family:'Ubuntu Mono';-inkscape-font-specification:'Ubuntu Mono, Bold';text-align:start;letter-spacing:0px;word-spacing:0px;writing-mode:lr-tb;text-anchor:start;fill:#ffffff;fill-opacity:1;stroke:none;stroke-width:1px;stroke-linecap:butt;stroke-linejoin:miter;stroke-opacity:1"
       id="path4235"
       inkscape:connector-curvature="0" />
    <path
       d="m 30.348448,60.126184 q 0.09546,0.01735 0.210025,0.01735 0.114559,0 0.210024,0 0.801909,0 1.336515,-0.277603 0.5537,-0.277602 0.878281,-0.763406 0.343676,-0.485805 0.477328,-1.14511 0.152745,-0.676656 0.152745,-1.474763 0,-0.694006 -0.114559,-1.353312 -0.114558,-0.659306 -0.400955,-1.16246 -0.286395,-0.503154 -0.782815,-0.798107 -0.496421,-0.312303 -1.279237,-0.312303 -0.152745,0 -0.343676,0.01735 -0.190931,0 -0.343676,0.0347 l 0,7.217661 z M 36,56.482653 q 0,1.492113 -0.420047,2.550472 -0.400954,1.041009 -1.126492,1.700315 -0.725537,0.659305 -1.73747,0.971608 Q 31.723151,62 30.520287,62 29.890215,62 29.279236,61.9306 28.687351,61.87855 28,61.739749 L 28,51.260256 Q 28.801909,51.104104 29.508353,51.052054 30.214797,51 30.825776,51 q 1.164678,0 2.119332,0.312303 0.973747,0.312303 1.642005,0.988958 0.668257,0.659306 1.031026,1.700315 Q 36,55.025235 36,56.482648 Z"
       style="font-style:normal;font-variant:normal;font-weight:bold;font-stretch:normal;font-size:medium;line-height:125%;font-family:'Ubuntu Mono';-inkscape-font-specification:'Ubuntu Mono, Bold';text-align:start;letter-spacing:0px;word-spacing:0px;writing-mode:lr-tb;text-anchor:start;fill:#ffffff;fill-opacity:1;stroke:none;stroke-width:1px;stroke-linecap:butt;stroke-linejoin:miter;stroke-opacity:1"
       id="path4237"
       inkscape:connector-curvature="0" />
    <path
       d="M 42.868778,62 Q 40.497737,62 39.248868,60.56966 38,59.139319 38,56.500001 q 0,-1.311146 0.38009,-2.332818 0.380091,-1.021672 1.049774,-1.719814 0.687783,-0.71517 1.610861,-1.072756 Q 41.981901,51 43.085972,51 q 0.597287,0 1.067875,0.102168 0.488687,0.08514 0.850678,0.204334 0.36199,0.119196 0.597285,0.255418 0.253394,0.136223 0.380091,0.204334 l -0.579186,1.668731 q -0.416289,-0.255418 -1.013575,-0.425697 -0.579185,-0.187306 -1.339366,-0.187306 -0.524887,0 -1.031674,0.187306 -0.488688,0.170279 -0.886879,0.595976 -0.380089,0.408669 -0.633484,1.10681 -0.235294,0.698143 -0.235294,1.736842 0,1.804955 0.651584,2.775543 0.669684,0.953559 2.171945,0.953559 0.868779,0 1.429866,-0.187305 0.579185,-0.187308 0.923076,-0.374613 L 46,61.267802 Q 45.529412,61.540247 44.714932,61.778637 43.918552,62 42.868778,62 Z"
       style="font-style:normal;font-variant:normal;font-weight:bold;font-stretch:normal;font-size:medium;line-height:125%;font-family:'Ubuntu Mono';-inkscape-font-specification:'Ubuntu Mono, Bold';text-align:start;letter-spacing:0px;word-spacing:0px;writing-mode:lr-tb;text-anchor:start;fill:#ffffff;fill-opacity:1;stroke:none;stroke-width:1px;stroke-linecap:butt;stroke-linejoin:miter;stroke-opacity:1"
       id="path4239"
       inkscape:connector-curvature="0" />
  </g>
  <g
     transform="matrix(0.80051185,0,0,0.80026785,12.788106,12.78717)"
     style="fill:#ffffff;fill-opacity:1"
     id="g59">
    <g
       id="g61"
       clip-path="url(#clipPath-258929573-9)"
       style="fill:#ffffff">
      <!-- color: #3d3d3d -->
      <g
         id="g63"
         style="fill:#ffffff">
        <path
           inkscape:connector-curvature="0"
           d="M 27.08,9.641 23.471,19.793 37.705,17.43 C 35.603,13.438 31.721,10.5 27.08,9.641 m 0,0"
           style="fill:#ffffff;fill-rule:nonzero;stroke:none"
           id="path65" />
        <path
           inkscape:connector-curvature="0"
           d="m 38.15,19.449 -10.738,1.988 9.199,10.98 c 2.457,-3.797 3.09,-8.586 1.527,-12.969 m 0.012,0"
           style="fill:#ffffff;fill-rule:nonzero;stroke:none"
           id="path67" />
        <path
           inkscape:connector-curvature="0"
           d="m 35.07,33.809 -7.121,-8.164 -5.05,13.344 c 4.566,0.195 9.09,-1.656 12.156,-5.18 m 0.012,0"
           style="fill:#ffffff;fill-rule:nonzero;stroke:none"
           id="path69" />
        <path
           inkscape:connector-curvature="0"
           d="m 20.922,38.36 3.617,-10.152 -14.242,2.363 c 2.109,3.996 5.996,6.934 10.625,7.789 m 0,0"
           style="fill:#ffffff;fill-rule:nonzero;stroke:none"
           id="path71" />
        <path
           inkscape:connector-curvature="0"
           d="M 9.852,28.559 20.586,26.571 11.387,15.591 C 8.934,19.392 8.297,24.177 9.86,28.56 m -0.008,0"
           style="fill:#ffffff;fill-rule:nonzero;stroke:none"
           id="path73" />
        <path
           inkscape:connector-curvature="0"
           d="m 12.926,14.207 7.121,8.164 5.05,-13.344 c -4.563,-0.195 -9.09,1.656 -12.152,5.18 m -0.016,0"
           style="fill:#ffffff;fill-rule:nonzero;stroke:none"
           id="path75" />
      </g>
    </g>
  </g>
</svg>

<svg xmlns="http://www.w3.org/2000/svg" viewBox="0 0 64 64">
 <defs>
  
 </defs>
 <path d="m 10.672 0 c -1.375 0 -2.672 1.355 -2.672 2.789 l 0 58.42 c 0 1.355 1.375 2.789 2.672 2.789 l 42.656 0 c 1.297 0 2.672 -1.434 2.672 -2.789 l 0 -43.21 -18 -18 m -27.328 0" style="fill:#35a14c;fill-opacity:1;stroke:none;fill-rule:nonzero"/>
 <path d="m 42 18 14 14 0 -14 z m 0 0" style="fill:#000;fill-opacity:0.196;stroke:none;fill-rule:nonzero"/>
 <path d="m 38 0 17.984 18 -15.227 0 c -1.348 0 -2.758 -1.426 -2.758 -2.773 m 0 -15.227" style="fill:#fff;fill-opacity:0.392;stroke:none;fill-rule:nonzero"/>
 <path d="m 8 48 0 13.336 c 0 1.297 1.375 2.664 2.664 2.664 l 42.672 0 c 1.289 0 2.664 -1.367 2.664 -2.664 l 0 -13.336 m -48 0" style="fill:#000;fill-opacity:0.196;stroke:none;fill-rule:nonzero"/>
 <g>
  <path d="m 23.495 62 q -0.198 -0.622 -0.577 -1.333 -0.36 -0.729 -0.811 -1.404 -0.45 -0.693 -0.955 -1.279 -0.486 -0.604 -0.937 -1.013 l 0 5.03 -2.216 0 l 0 -11 2.216 0 0 4.567 q 0.396 -0.498 0.829 -1.102 0.432 -0.604 0.811 -1.208 0.396 -0.604 0.721 -1.191 q 0.324 -0.586 0.541 -1.066 l 2.505 0 q -0.252 0.48 -0.613 1.102 -0.342 0.604 -0.793 1.279 -0.45 0.658 -0.973 1.351 -0.505 0.693 -1.063 1.333 0.559 0.533 1.135 1.226 0.577 0.693 1.081 1.493 0.523 0.782 0.937 1.617 q 0.414 0.817 0.667 1.599 l -2.505 0 z" style="fill:#fff;fill-opacity:1;stroke:none"/>
  <path d="m 30.348 60.13 q 0.095 0.017 0.21 0.017 0.115 0 0.21 0 0.802 0 1.337 -0.278 0.554 -0.278 0.878 -0.763 0.344 -0.486 0.477 -1.145 0.153 -0.677 0.153 -1.475 0 -0.694 -0.115 -1.353 -0.115 -0.659 -0.401 -1.162 -0.286 -0.503 -0.783 -0.798 -0.496 -0.312 -1.279 -0.312 -0.153 0 -0.344 0.017 -0.191 0 -0.344 0.035 l 0 7.218 z m 5.652 -3.644 q 0 1.492 -0.42 2.55 -0.401 1.041 -1.126 1.7 -0.726 0.659 -1.737 0.972 q -0.993 0.295 -2.196 0.295 -0.63 0 -1.241 -0.069 -0.592 -0.052 -1.279 -0.191 l 0 -10.479 q 0.802 -0.156 1.508 -0.208 0.706 -0.052 1.317 -0.052 q 1.165 0 2.119 0.312 0.974 0.312 1.642 0.989 0.668 0.659 1.031 1.7 q 0.382 1.024 0.382 2.481" style="fill:#fff;fill-opacity:1;stroke:none"/>
  <path d="m 42.869 62 q -2.371 0 -3.62 -1.43 -1.249 -1.43 -1.249 -4.07 q 0 -1.311 0.38 -2.333 0.38 -1.022 1.05 -1.72 0.688 -0.715 1.611 -1.073 q 0.941 -0.375 2.045 -0.375 q 0.597 0 1.068 0.102 0.489 0.085 0.851 0.204 0.362 0.119 0.597 0.255 0.253 0.136 0.38 0.204 l -0.579 1.669 q -0.416 -0.255 -1.014 -0.426 -0.579 -0.187 -1.339 -0.187 -0.525 0 -1.032 0.187 -0.489 0.17 -0.887 0.596 -0.38 0.409 -0.633 1.107 -0.235 0.698 -0.235 1.737 0 1.805 0.652 2.776 0.67 0.954 2.172 0.954 0.869 0 1.43 -0.187 0.579 -0.187 0.923 -0.375 l 0.561 1.652 q -0.471 0.272 -1.285 0.511 -0.796 0.221 -1.846 0.221" style="fill:#fff;fill-opacity:1;stroke:none"/>
 </g>
 <g transform="matrix(0.80051185,0,0,0.80026785,12.788106,12.78717)" style="fill:#fff;fill-opacity:1">
  <g style="clip-path:url(#clipPath-258929573-9);fill:#fff">
   <!-- color: #3d3d3d -->
   <g style="fill:#fff">
    <path d="M 27.08,9.641 23.471,19.793 37.705,17.43 C 35.603,13.438 31.721,10.5 27.08,9.641 m 0,0" style="fill:#fff;stroke:none;fill-rule:nonzero"/>
    <path d="m 38.15 19.449 -10.738 1.988 9.199 10.98 c 2.457 -3.797 3.09 -8.586 1.527 -12.969 m 0.012 0" style="fill:#fff;stroke:none;fill-rule:nonzero"/>
    <path d="m 35.07 33.809 -7.121 -8.164 -5.05 13.344 c 4.566 0.195 9.09 -1.656 12.156 -5.18 m 0.012 0" style="fill:#fff;stroke:none;fill-rule:nonzero"/>
    <path d="m 20.922 38.36 3.617 -10.152 -14.242 2.363 c 2.109 3.996 5.996 6.934 10.625 7.789 m 0 0" style="fill:#fff;stroke:none;fill-rule:nonzero"/>
    <path d="M 9.852,28.559 20.586,26.571 11.387,15.591 C 8.934,19.392 8.297,24.177 9.86,28.56 m -0.008,0" style="fill:#fff;stroke:none;fill-rule:nonzero"/>
    <path d="m 12.926 14.207 7.121 8.164 5.05 -13.344 c -4.563 -0.195 -9.09 1.656 -12.152 5.18 m -0.016 0" style="fill:#fff;stroke:none;fill-rule:nonzero"/>
   </g>
  </g>
 </g>
</svg>
